src/4-icons/edit.svg

<svg width="260" height="260" viewBox="0 0 260 260" fill="none" xmlns="http://www.w3.org/2000/svg">
<path d="M200.746 48.7501C196.456 44.4855 191.776 41.1065 187.018 38.7655C182.259 36.4509 177.424 35.1001 172.744 35.1001C170.429 35.1001 168.142 35.4383 165.984 36.2183C163.826 36.9983 161.772 38.2465 160.082 39.9365L47.8139 152.178L35.9575 213.513L97.2921 201.658L209.56 89.3893C211.25 87.6993 212.499 85.6711 213.279 83.5139C214.059 81.3567 214.397 79.0685 214.397 76.7539C214.397 72.0739 213.045 67.2375 210.731 62.4793C208.366 57.7211 205.011 53.0147 200.747 48.7511L200.746 48.7501ZM92.1967 192.062L63.7003 197.574C63.7003 197.365 63.7521 197.184 63.7785 196.975C63.8303 190.736 58.8903 185.64 52.7539 185.587C52.4939 185.587 52.2339 185.639 51.9739 185.665L57.4593 157.3L149.759 65.0001L184.548 99.7883L92.1957 192.063L92.1967 192.062ZM203.476 79.9765C203.164 80.8347 202.748 81.4847 202.201 82.0301L191.828 92.4047L157.066 57.6429L167.439 47.2683C167.985 46.7219 168.636 46.3065 169.494 45.9937C170.352 45.6809 171.444 45.5001 172.744 45.5001C175.369 45.5001 178.802 46.3319 182.442 48.1265C186.082 49.8947 189.904 52.5983 193.389 56.1083C196.899 59.6183 199.603 63.4401 201.37 67.0537C203.165 70.6937 203.996 74.1255 203.97 76.7519C203.996 78.0255 203.789 79.1173 203.476 79.9755V79.9765Z" fill="black"/>
</svg>

<svg width="260" height="260" fill="none" xmlns="http://www.w3.org/2000/svg"><path d="M200.746 48.75c-4.29-4.264-8.97-7.644-13.728-9.984-4.759-2.315-9.594-3.666-14.274-3.666-2.315 0-4.602.338-6.76 1.118-2.158.78-4.212 2.028-5.902 3.718L47.814 152.179l-11.856 61.335 61.334-11.855L209.56 89.389a16.01 16.01 0 0 0 3.719-5.875c.78-2.157 1.118-4.445 1.118-6.76 0-4.68-1.352-9.517-3.666-14.275-2.365-4.758-5.72-9.464-9.984-13.728h-.001ZM92.196 192.062 63.7 197.574c0-.209.052-.39.078-.599.052-6.239-4.888-11.335-11.024-11.388-.26 0-.52.052-.78.078l5.485-28.365 92.3-92.3 34.789 34.788-92.352 92.275v-.001Zm111.28-112.086c-.312.859-.728 1.509-1.275 2.054l-10.373 10.375-34.762-34.762 10.373-10.375c.546-.546 1.197-.962 2.055-1.274.858-.313 1.95-.494 3.25-.494 2.625 0 6.058.832 9.698 2.627 3.64 1.768 7.462 4.471 10.947 7.981 3.51 3.51 6.214 7.332 7.981 10.946 1.795 3.64 2.626 7.072 2.6 9.698.026 1.273-.181 2.365-.494 3.224Z" fill="#000"/></svg>
